svg/phone.svg

<svg xmlns="http://www.w3.org/2000/svg" viewBox="0 0 32 32" enable-background="new 0 0 32 32"><path d="M 8.65625 3 C 8.1327819 3 7.6152588 3.189043 7.1875 3.53125 L 7.125 3.5625 L 7.09375 3.59375 L 3.96875 6.8125 L 4 6.84375 C 3.0365432 7.73509 2.7372965 9.0666437 3.15625 10.21875 C 3.1584 10.22495 3.15408 10.24379 3.15625 10.25 C 4.0032406 12.677572 6.1733584 17.360858 10.40625 21.59375 C 14.65572 25.84322 19.403183 27.92543 21.75 28.84375 L 21.78125 28.84375 C 22.997478 29.249159 24.311802 28.96042 25.25 28.15625 L 25.28125 28.125 L 25.3125 28.09375 L 28.40625 25 C 29.236233 24.170017 29.236233 22.736233 28.40625 21.90625 L 24.34375 17.84375 L 24.3125 17.78125 C 23.482517 16.951267 22.017483 16.951267 21.1875 17.78125 L 21.15625 17.8125 L 19.1875 19.78125 C 18.464474 19.43545 16.741138 18.541257 15.09375 16.96875 C 13.458085 15.407433 12.619959 13.61108 12.3125 12.90625 L 14.3125 10.90625 C 15.154265 10.064485 15.167132 8.6695101 14.28125 7.84375 L 14.3125 7.8125 L 14.21875 7.71875 L 10.21875 3.59375 L 10.1875 3.5625 L 10.125 3.53125 C 9.6972412 3.189043 9.1797181 3 8.65625 3 z M 8.65625 5 C 8.7295044 5 8.8027588 5.035957 8.875 5.09375 L 12.875 9.1875 L 12.9375 9.25 L 12.96875 9.28125 C 12.96085 9.27494 13.02913 9.377124 12.90625 9.5 L 10.40625 12 L 9.9375 12.4375 L 10.15625 13.0625 C 10.15625 13.0625 11.306566 16.13496 13.71875 18.4375 L 13.9375 18.625 C 16.260558 20.74677 19 21.90625 19 21.90625 L 19.625 22.1875 L 20.09375 21.71875 L 22.59375 19.21875 C 22.763767 19.048733 22.736233 19.048733 22.90625 19.21875 L 27 23.3125 C 27.170017 23.482517 27.170017 23.423733 27 23.59375 L 23.9375 26.65625 C 23.475698 27.05208 22.990022 27.132091 22.40625 26.9375 C 20.138957 26.047527 15.736488 24.111488 11.8125 20.1875 C 7.8562209 16.231221 5.7887768 11.74039 5.03125 9.5625 C 4.8787539 9.1558438 4.9891373 8.5539537 5.34375 8.25 L 5.375 8.21875 L 5.40625 8.1875 L 8.4375 5.09375 C 8.5097413 5.035957 8.5829956 5 8.65625 5 z" color="#000" overflow="visible" enable-background="accumulate"/></svg>

<svg xmlns="http://www.w3.org/2000/svg" viewBox="0 0 32 32"><path d="M8.656 3c-.523 0-1.04.19-1.47.53l-.06.033-.032.03-3.125 3.22.03.03c-.963.892-1.263 2.224-.844 3.376.002.005-.002.024 0 .03.847 2.428 3.017 7.11 7.25 11.344 4.25 4.25 8.997 6.33 11.344 7.25h.03c1.217.405 2.532.116 3.47-.688l.03-.03.032-.032L28.407 25c.83-.83.83-2.264 0-3.094l-4.062-4.062-.032-.063c-.83-.83-2.295-.83-3.125 0l-.03.032-1.97 1.97c-.723-.347-2.446-1.24-4.093-2.813-1.636-1.563-2.474-3.36-2.78-4.064l1.998-2c.842-.842.855-2.236-.03-3.062l.03-.032-.093-.093-4-4.126-.033-.03-.062-.033C9.697 3.19 9.18 3 8.655 3zm0 2c.074 0 .147.036.22.094l4 4.093.062.063.03.03c-.007-.005.06.097-.062.22l-2.5 2.5-.47.438.22.624s1.15 3.073 3.563 5.376l.217.187C16.26 20.747 19 21.905 19 21.905l.625.282.47-.468 2.5-2.5c.17-.17.14-.17.31 0L27 23.312c.17.17.17.11 0 .28l-3.063 3.063c-.46.396-.947.476-1.53.282-2.268-.89-6.67-2.827-10.595-6.75C7.857 16.23 5.79 11.74 5.032 9.563c-.153-.407-.043-1.01.312-1.313l.03-.03.032-.033 3.032-3.093C8.51 5.036 8.582 5 8.655 5z"/></svg>
